X: 79
T: Virgo Maria, non est tibi similis
C: Gaspar van Weerbeke
%%abc-version 2.0
%%abcx-abcm2ps-target-version 5.9.1 (29 Sep 2008)
%%abc-creator hum2abc beta
%%abcx-conversion-date 2022/03/06 13:05:57
%%abc-copyright Copyright 2008, Pavanello, Agnese
%%abc-edited-by Mair-Gruber, Roland
%%humdrum-veritas 3878394635
%%humdrum-veritas-data 2736323425
%%linebreak <none>
%%barnumbers 0
L: 1/4
M: 2/2
N: Derived from Gas0405.2-Virgo_maria_non_est_tibi_similis.krn
%%staves {1 2}
V: 1 clef=treble
V: 2 clef=bass
K: C
[V:1] E4 & B,4 | 
[V:2] E,4 & E,4 | 
[V:1] E4 & B,4 | 
[V:2] E,4 & E,4 | 
[V:1] E2E2 & C2B,3/C/ | 
[V:2] G,2G,2 & C,2E,2 | 
[V:1] F3E/D/ & D4 | 
[V:2] A,3B, & D,4 | 
[V:1] E4 & G,4 | 
[V:2] C4 & C,4 | 
[V:1] E2G2- & G3E | 
[V:2] C4 & C,4 | 
[V:1] G2A2 & z/ D/C/B,/A,2 | 
[V:2] C2C2 & E,2F,2 | 
[V:1] B2cd- & D2EF- | 
[V:2] zF,E,D,- & D,2C,_B,,- | 
[V:1] dc/B/c2- & FED2 | 
[V:2] D,E,^F,2 & B,,C,A,,2 | 
[V:1] c2B2 & D4 | 
[V:2] G,4 & G,,4 | 
[V:1] c4 & C4 | 
[V:2] E,>F,G,A, & C,4 | 
[V:1] z2c2 & z/ B,/CC/D/E | 
[V:2] C4 & z4 | 
[V:1] c2c2 & z/ F/G2^F | 
[V:2] A,2A,2 & z4 | 
[V:1] B2AB & G2FG- | 
[V:2] G,B,CD & G,2A,G, | 
[V:1] z/ A/A2^G & GE2E | 
[V:2] z/ A,/CB,2 & z/ F,/A,E,2 | 
[V:1] A4 & C>D E/F/E- | 
[V:2] A,4 & A,,4 | 
[V:1] z4 & ED/C/B,D | 
[V:2] z4 & A,2G,F, | 
[V:1] z4 & zC2B, | 
[V:2] x4 & G,E,D,2 | 
[V:1] z2E2 & C4 | 
[V:2] x4 & C,4 | 
[V:1] G2G2 & C>DE3/D/ | 
[V:2] z2E,2 & C,4 | 
[V:1] E4 & CB,/A,/G,C | 
[V:2] G,2G,2 & C,4 | 
[V:1] z2G2 & z/ D/E/F/ G/F/E/D/ | 
[V:2] E,4 & C,4 | 
[V:1] A2GE- & C2E2 | 
[V:2] z2G,2 & F,2E,/D,/C,/B,,/ | 
[V:1] ED/C<B,C/ & zFE2 | 
[V:2] A,2G,E,- & A,,2E,A,, | 
[V:1] DE2D & C2A,2 | 
[V:2] E,G,F,2 & C,2D,2 | 
[V:1] E2z2 & z4 | 
[V:2] E,4 & x2A,,2 | 
[V:1] z4 | 
[V:2] z2A,2 & G,,G,,C,2 | 
[V:1] z4 | 
[V:2] G,G,C2 & B,,2A,,E,- | 
[V:1] z4 | 
[V:2] B,2A,B, & E,D,C,D, | 
[V:1] z4- | 
[V:2] z/ A,/^G,/^F,/^G,2 & z/ C,/B,,/A,,/B,,2 | 
[V:1] x4 & z2A,2 | 
[V:2] A,4 & A,,4 | 
[V:1] z2A2 & G,G,C2 | 
[V:2] z4 & z4 | 
[V:1] GGc2 & B,2A,E- | 
[V:2] z4 & z2A,2 | 
[V:1] B2Ac & EDCE- | 
[V:2] z4 & G,2A,2 | 
[V:1] z/ B/A2^G & E/ D/CB,2 | 
[V:2] x4 & E,A,E,2 | 
[V:1] A4 & A,4 | 
[V:2] E,4 & A,,4 | 
[V:1] A2A2 & C2C2 | 
[V:2] E,2E,2 & A,,2A,,2 | 
[V:1] A4 & F2A,D | 
[V:2] F,4 & D,4 | 
[V:1] A2A2 & z/ E/F2E/D/ | 
[V:2] D,2D,2 & D,2F,2 | 
[V:1] G4 & CD2^C | 
[V:2] E,4 & G,4 | 
[V:1] F4 & D4 | 
[V:2] A,4 & D,4 | 
[V:1] E2DE- & C2A,C- | 
[V:2] A,2F,G,- & A,,2D,C,- | 
[V:1] ED2^C & CB,A,2 | 
[V:2] G,F,E,2 & C,D,A,,2 | 
[V:1] D4 & F,2A,2 | 
[V:2] D,4 & A,4 | 
[V:1] F4 & z2D2 | 
[V:2] A,4 & D,4 | 
[V:1] E2G2 & G,3C- | 
[V:2] C2G,2 & C,4 | 
[V:1] zFE2- & CB,/A,/G,C | 
[V:2] E,3G, & C,4 | 
[V:1] E2D2 & B,A,2G,/A,/ | 
[V:2] F,4 & D,4 | 
[V:1] E4 & B,4 | 
[V:2] E,4 & G,4 | 
[V:1] E4 & C2G,2 | 
[V:2] E,4 & C,3B,, | 
[V:1] E4 & A,2B,2 | 
[V:2] E,4 & A,,2G,,2 | 
[V:1] E4 & C3B,/A,/ | 
[V:2] E,4 & A,,4 | 
[V:1] E4 & B,4 |]  
[V:2] E,4 & E,4 |]  


